X:1
T: Falls of Clyde
C:
R:Reel
Q: 232
K:A
M:4/4
L:1/8
|:ea ga fa ga|ea ga ec Ac|df dB ce cA|dc BA GB cd|
ea ga fa ga|ea ga ec Ac|df dB ce cA|GA Bc A2 BA|
Ge ^de ge de|Ae ^de ae de|Ge ^de ge de|ag fe dc BA|
Ge ^de ge de|Ae ^de ae de|gb ge fa f^d|ef gf ed cd:|
